X: 1819
T: Ardaigh Do Mheanna
R: jig
M: 6/8
K: Dmajor
dAG F3|dAF E3|dAG F2 E|DFA B2 A|
dAG F3|dAF E3|D3 AFA|1 dfe d2 A:|2 dfe d2 e||
f3 afd|FAd fed|e3 gec|EAc gfe|
f3 afd|FAd cde|D3 AFA|1 dfe d2 e|2 dfe d3||

